!!!OTL: Psalmlied
!!!ARE: Europa, Mitteleuropa, Deutschland
!!!SCT: A0626
!!!YEM: Copyright 1995, estate of Helmut Schaffrath.
**kern
*ICvox
*Ivox
!! Mixed meters:  4/1; 6/1
*M4/1
*k[f#]
*e:
{1b
=1
1e
1b
1ccn
1b
=2
1gn
1a
1b
2r}
{2b
=3
1ccn
1ddn
1ccn
1a
=4
*M6/1
0gn
0fn
1e}
{1b
=5
*M4/1
1e
1b
1ccn
1b
=6
1gn
1a
1b
2r}
{2b
=7
1ccn
1ddn
1ccn
1a
=8
*M6/1
0gn
0fn
1.e}
{2a
=9
*M4/1
1gn
1ccn
1b
2a
[2ddn
=10
2ddn]
2ccn
1b
1a
2r}
{2ccn
=11
1b
1ccn
1ddn
1gn
=12
2b
2ccn
1a
1gn
2r}
{2gn
=13
1ccn
1b
1a
1e
=14
0gn
0fn
1gn}
==
!!!AGN: Romanze, Ballade, Lied, religioeses Lied
!! Luth Gsgb 1524
!!!ONB: ESAC (Essen Associative Code) Database: ALTDEU
!!!AMT: irregular
!!!AIN: vox
!!!EED: Helmut Schaffrath
!!!EEV: 1.0
*-
